Newaita-dark/actions/22/format-precision-more.svg

<svg height="22" viewBox="0 0 22 22" width="22" xmlns="http://www.w3.org/2000/svg"><g fill="#e0e0e0"><path d="m20.011719 16.542969v.910156c0 .253906-.203125.457031-.457031.457031h-5.457032c-.25 0-.453125-.203125-.453125-.457031v-.910156c0-.25.203125-.453125.453125-.453125h5.457032c.253906 0 .457031.203125.457031.453125zm0 0"/><path d="m17.28125 20.183594h-.910156c-.25 0-.453125-.203125-.453125-.457032v-5.457031c0-.25.203125-.453125.453125-.453125h.910156c.253906 0 .457031.203125.457031.453125v5.457031c0 .253907-.203125.457032-.457031.457032zm0 0"/><path d="m8.640625 1.992188c-1.890625 0-3.410156 1.519531-3.410156 3.410156v3.183594c0 1.890624 1.519531 3.410156 3.410156 3.410156s3.410156-1.519532 3.410156-3.410156v-3.183594c0-1.890625-1.519531-3.410156-3.410156-3.410156zm0 1.816406c.882813 0 1.59375.710937 1.59375 1.59375v3.183594c0 .882812-.710937 1.589843-1.59375 1.589843s-1.589844-.707031-1.589844-1.589843v-3.183594c0-.882813.707031-1.59375 1.589844-1.59375zm0 0"/><path d="m16.601562 1.992188c-1.890624 0-3.414062 1.519531-3.414062 3.410156v3.183594c0 1.890624 1.523438 3.410156 3.414062 3.410156 1.886719 0 3.410157-1.519532 3.410157-3.410156v-3.183594c0-1.890625-1.523438-3.410156-3.410157-3.410156zm0 1.816406c.878907 0 1.589844.710937 1.589844 1.59375v3.183594c0 .882812-.710937 1.589843-1.589844 1.589843-.882812 0-1.59375-.707031-1.59375-1.589843v-3.183594c0-.882813.710938-1.59375 1.59375-1.59375zm0 0"/><path d="m2.273438 10.175781h.910156c.25 0 .453125.207031.453125.457031v.910157c0 .25-.203125.453125-.453125.453125h-.910156c-.25 0-.453126-.203125-.453126-.453125v-.910157c0-.25.203126-.457031.453126-.457031zm0 0"/></g></svg>

<?xml version="1.0" encoding="UTF-8"?>
<svg xmlns="http://www.w3.org/2000/svg" xmlns:xlink="http://www.w3.org/1999/xlink" width="22px" height="22px" viewBox="0 0 22 22" version="1.1">
<g id="surface1">
<path style=" stroke:none;fill-rule:nonzero;fill:rgb(87.843138%,87.843138%,87.843138%);fill-opacity:1;" d="M 20.011719 16.542969 L 20.011719 17.453125 C 20.011719 17.707031 19.808594 17.910156 19.554688 17.910156 L 14.097656 17.910156 C 13.847656 17.910156 13.644531 17.707031 13.644531 17.453125 L 13.644531 16.542969 C 13.644531 16.292969 13.847656 16.089844 14.097656 16.089844 L 19.554688 16.089844 C 19.808594 16.089844 20.011719 16.292969 20.011719 16.542969 Z M 20.011719 16.542969 "/>
<path style=" stroke:none;fill-rule:nonzero;fill:rgb(87.843138%,87.843138%,87.843138%);fill-opacity:1;" d="M 17.28125 20.183594 L 16.371094 20.183594 C 16.121094 20.183594 15.917969 19.980469 15.917969 19.726562 L 15.917969 14.269531 C 15.917969 14.019531 16.121094 13.816406 16.371094 13.816406 L 17.28125 13.816406 C 17.535156 13.816406 17.738281 14.019531 17.738281 14.269531 L 17.738281 19.726562 C 17.738281 19.980469 17.535156 20.183594 17.28125 20.183594 Z M 17.28125 20.183594 "/>
<path style=" stroke:none;fill-rule:nonzero;fill:rgb(87.843138%,87.843138%,87.843138%);fill-opacity:1;" d="M 8.640625 1.992188 C 6.75 1.992188 5.230469 3.511719 5.230469 5.402344 L 5.230469 8.585938 C 5.230469 10.476562 6.75 11.996094 8.640625 11.996094 C 10.53125 11.996094 12.050781 10.476562 12.050781 8.585938 L 12.050781 5.402344 C 12.050781 3.511719 10.53125 1.992188 8.640625 1.992188 Z M 8.640625 3.808594 C 9.523438 3.808594 10.234375 4.519531 10.234375 5.402344 L 10.234375 8.585938 C 10.234375 9.46875 9.523438 10.175781 8.640625 10.175781 C 7.757812 10.175781 7.050781 9.46875 7.050781 8.585938 L 7.050781 5.402344 C 7.050781 4.519531 7.757812 3.808594 8.640625 3.808594 Z M 8.640625 3.808594 "/>
<path style=" stroke:none;fill-rule:nonzero;fill:rgb(87.843138%,87.843138%,87.843138%);fill-opacity:1;" d="M 16.601562 1.992188 C 14.710938 1.992188 13.1875 3.511719 13.1875 5.402344 L 13.1875 8.585938 C 13.1875 10.476562 14.710938 11.996094 16.601562 11.996094 C 18.488281 11.996094 20.011719 10.476562 20.011719 8.585938 L 20.011719 5.402344 C 20.011719 3.511719 18.488281 1.992188 16.601562 1.992188 Z M 16.601562 3.808594 C 17.480469 3.808594 18.191406 4.519531 18.191406 5.402344 L 18.191406 8.585938 C 18.191406 9.46875 17.480469 10.175781 16.601562 10.175781 C 15.71875 10.175781 15.007812 9.46875 15.007812 8.585938 L 15.007812 5.402344 C 15.007812 4.519531 15.71875 3.808594 16.601562 3.808594 Z M 16.601562 3.808594 "/>
<path style=" stroke:none;fill-rule:nonzero;fill:rgb(87.843138%,87.843138%,87.843138%);fill-opacity:1;" d="M 2.273438 10.175781 L 3.183594 10.175781 C 3.433594 10.175781 3.636719 10.382812 3.636719 10.632812 L 3.636719 11.542969 C 3.636719 11.792969 3.433594 11.996094 3.183594 11.996094 L 2.273438 11.996094 C 2.023438 11.996094 1.820312 11.792969 1.820312 11.542969 L 1.820312 10.632812 C 1.820312 10.382812 2.023438 10.175781 2.273438 10.175781 Z M 2.273438 10.175781 "/>
</g>
</svg>
